X:1
T:Title
%%score ( 1 2 ) ( 3 4 )
L:1/8
Q:1/4=103
M:4/4
K:C
V:1 treble nm="Grand Piano, Soprano"
V:2 treble 
V:3 bass nm="Choir Pad, Nazrey, J. T. Layton, 1898"
V:4 bass 
V:1
 [EG][CE][CG][Ec]- [Ec] [Ec]2 [Gc]- | [Gc] [GB]2 [GB]- [GB]3 [FA] | %2
w: By~John~Turner~Layton,~Sr.,~1898 * * * * * *||
 [DA][D^F][DA][Fd]- [Fd] [Fd]2 [Ad]- | [Ad] [Ac]2 [Ac]- [Ac]3 [GB] | B^GB[Ge]- [Ge] [Ge]2 [Ee]- | %5
w: |||
 [Ee] [Ed]2 d- d3 c | [Ff][Ge][Fd][Ec]- [Ec] [Ec]2 [FB]- | [FB] [FB]2 [Ec]- [Ec]4 | %8
w: |||
 GEG[Ec]- [Ec] .[Ec]3 | G^FG[Gd]- [Gd] .[Gd]3 | Gcd[Ge]- [Ge]2 [Fd][Ec]- | %11
w: |||
 [Ec] [DB]2 [Ec] G/G/G G/G/G | GEG[Ec]- [Ec] .[Ec]3 | G^FG[Gd]- [Gd] .[Gd]3 | %14
w: |||
 Gcd[Ge]- [Ge]2 [Fd][Ec]- | [Ec] [DB]2 [Ec]- [Ec]4- | [Ec]4 z4 |] %17
w: |||
V:2
 x8 | x8 | x8 | x8 | x8 | z2 z E- E4 | x8 | x8 | x8 | x8 | x8 | x8 | x8 | x8 | x8 | x8 | x8 |] %17
V:3
 [C,C][G,C][E,C][C,G,]- [C,G,] [C,G,]2 [E,C]- | [E,C] [E,C]2 [F,C]- [F,C]4 | %2
 [^F,A,]A,[F,A,][D,A,]- [D,A,] [D,A,]2 [F,D]- | [F,D] [^F,D]2 [G,D]- [G,D]4 | z8 | z2 z B,- B,3 z | %6
 [D,A,][E,C][F,A,]G,- G,/ z/ G,2 [G,,G,]- | [G,,G,] [G,,G,]2 [C,G,]- [C,G,]4 | %8
 z2 z [C,G,]- [C,G,] .[C,G,]3 | z2 z [G,B,]- [G,B,] .[G,B,]3 | z2 z [C,C]- [C,C]2 [F,A,]G,- | %11
 G, G,2 [C,G,] z4 | z2 z [C,G,]- [C,G,] .[C,G,]3 | z2 z [G,B,]- [G,B,] .[G,B,]3 | %14
 z2 z [C,C]- [C,C]2 [F,A,]G,- | G, G,2 [C,G,]- [C,G,]4- | [C,G,]4 z4 |] %17
V:4
 x8 | x8 | x8 | x8 | B,^G,B,[E,B,]- [E,B,] [E,B,]2 [G,B,]- | [G,B,] [^G,B,]2 A,- A,3- [A,C] | x8 | %7
 x8 | x8 | x8 | x8 | x8 | x8 | x8 | x8 | x8 | x8 |] %17

